X:1
T:Earl Brand
M:4/4
L:1/8
K:G
 AA| A2 dA d2 d2| c/2 A3/2 c2 d2A-B| c2A-F G2 GB| A6|D-E| F2 E2 D2 DF|\
 ED EA A2 DD| F2 GF E2 ED| D6||
